X: 27720
T: Morning Dew, The
R: reel
M: 4/4
K: Eminor
B2 EB GBEB|BEGB ADFA|B2 EB GBEg-|ge (3dcB ADFA|
B2 EB GBEB|BEGB ADFA|B2 EB GBEg|gecB ADFA|
B2 eg fded|B2 eg fddA|B2 eg fded|(3B^cd AG FDDA|
B2 eg fded|B2 eg fdd^c|dfaf gfed|(3B^cB AF BEEB||

